src/assets/img/svg_sources/icon_github.svg

<svg width="30" height="30" viewBox="0 0 30 30" fill="none" xmlns="http://www.w3.org/2000/svg">
<rect width="30" height="30" fill="white"/>
<path fill-rule="evenodd" clip-rule="evenodd" d="M30 15C30 23.2843 23.2843 30 15 30C6.71573 30 0 23.2843 0 15C0 6.71573 6.71573 0 15 0C23.2843 0 30 6.71573 30 15ZM19.4249 16.2666C19.8082 16.7332 19.9998 17.2999 19.9998 17.9666C19.9995 18.4554 19.9107 18.8818 19.7333 19.2458C19.556 19.6097 19.3311 19.8958 19.0585 20.1039C18.786 20.3121 18.4471 20.4787 18.0417 20.6037C17.6363 20.7288 17.2474 20.8108 16.875 20.8497C16.5026 20.8886 16.0887 20.908 15.6332 20.908H14.2332C13.7775 20.908 13.3635 20.8886 12.9914 20.8497C12.6193 20.8108 12.2305 20.7288 11.8248 20.6037C11.4191 20.4787 11.0801 20.3121 10.8079 20.1039C10.5357 19.8958 10.3108 19.6097 10.1331 19.2458C9.95546 18.8818 9.86664 18.4554 9.86664 17.9666C9.86664 17.2999 10.0583 16.7332 10.4416 16.2666C10.8249 15.7999 11.3443 15.5666 11.9998 15.5666C12.2387 15.5666 12.7803 15.6249 13.6247 15.7416C14.0192 15.8025 14.4554 15.833 14.9332 15.833C15.4111 15.833 15.8473 15.8025 16.2418 15.7416C17.0973 15.6249 17.639 15.5666 17.8667 15.5666C18.5222 15.5666 19.0416 15.7999 19.4249 16.2666ZM21.3583 19.2584C21.6971 18.5692 21.8665 17.6498 21.8665 16.4999L21.8669 16.499C21.8669 15.1767 21.4891 14.0712 20.7334 13.1824C20.8834 12.7325 20.9583 12.2659 20.9583 11.7824C20.9583 11.1378 20.8166 10.5322 20.5332 9.96566C19.9387 9.96535 19.4137 10.0736 18.9582 10.2905C18.5028 10.5073 17.9834 10.8435 17.4 11.2989C16.6667 11.1213 15.889 11.0325 15.0667 11.0325C14.1667 11.0325 13.3083 11.1297 12.4916 11.3241C11.8971 10.8575 11.3721 10.5145 10.9166 10.2951C10.4612 10.0758 9.93337 9.96613 9.33324 9.96613C9.04982 10.533 8.90811 11.1385 8.90811 11.7829C8.90811 12.2719 8.98309 12.7442 9.13304 13.1996C8.37736 14.0829 7.99951 15.1828 7.99951 16.4994C7.99951 17.6552 8.17171 18.5747 8.51611 19.2579C8.69935 19.6191 8.93829 19.9386 9.23291 20.2164C9.52753 20.4942 9.86368 20.7192 10.2414 20.8912C10.6191 21.0633 10.9995 21.2064 11.3828 21.3205C11.7661 21.4347 12.1897 21.5181 12.6536 21.5707C13.1174 21.6233 13.5272 21.6579 13.8828 21.6747C14.2384 21.6915 14.6329 21.6999 15.0662 21.6999C15.5771 21.7003 16.0409 21.6878 16.4578 21.6626C16.8747 21.6374 17.3512 21.5763 17.8872 21.4792C18.4233 21.3821 18.8955 21.2502 19.304 21.0835C19.7125 20.9167 20.1042 20.6778 20.4791 20.3667C20.854 20.0556 21.147 19.6861 21.3583 19.2584ZM13.2294 17.2834C13.2988 17.5168 13.3335 17.7445 13.3335 17.9666C13.3335 18.1888 13.2988 18.4165 13.2294 18.6498C13.1601 18.8832 13.0406 19.0942 12.871 19.2831C12.7015 19.4719 12.5 19.5663 12.2667 19.5663C12.0334 19.5663 11.8319 19.4719 11.6624 19.2831C11.4928 19.0942 11.3733 18.8832 11.304 18.6498C11.2346 18.4165 11.1999 18.1888 11.1999 17.9666C11.1999 17.7445 11.2346 17.5168 11.304 17.2834C11.3733 17.0501 11.4928 16.839 11.6624 16.6502C11.8319 16.4613 12.0334 16.3669 12.2667 16.3669C12.5 16.3669 12.7015 16.4613 12.871 16.6502C13.0406 16.839 13.1601 17.0501 13.2294 17.2834ZM18.5625 17.2834C18.6319 17.5168 18.6666 17.7445 18.6666 17.9666C18.6666 18.1888 18.6319 18.4165 18.5625 18.6498C18.4931 18.8832 18.3736 19.0942 18.2041 19.2831C18.0345 19.4719 17.8331 19.5663 17.5998 19.5663C17.3664 19.5663 17.165 19.4719 16.9954 19.2831C16.8259 19.0942 16.7064 18.8832 16.637 18.6498C16.5676 18.4165 16.533 18.1888 16.533 17.9666C16.533 17.7445 16.5676 17.5168 16.637 17.2834C16.7064 17.0501 16.8259 16.839 16.9954 16.6502C17.165 16.4613 17.3664 16.3669 17.5998 16.3669C17.8331 16.3669 18.0345 16.4613 18.2041 16.6502C18.3736 16.839 18.4931 17.0501 18.5625 17.2834Z" fill="#929191"/>
</svg>

<svg width="30" height="30" viewBox="0 0 30 30" fill="none" xmlns="http://www.w3.org/2000/svg"><path fill="#fff" d="M0 0h30v30H0z"/><path fill-rule="evenodd" clip-rule="evenodd" d="M30 15c0 8.284-6.716 15-15 15-8.284 0-15-6.716-15-15C0 6.716 6.716 0 15 0c8.284 0 15 6.716 15 15zm-10.575 1.267c.383.466.575 1.033.575 1.7 0 .488-.09.915-.267 1.279-.177.364-.402.65-.675.858a3.226 3.226 0 0 1-1.016.5 6.12 6.12 0 0 1-1.167.246c-.372.039-.786.058-1.242.058h-1.4c-.456 0-.87-.02-1.242-.058a6.13 6.13 0 0 1-1.166-.246 3.22 3.22 0 0 1-1.017-.5 2.356 2.356 0 0 1-.675-.858c-.178-.364-.266-.79-.266-1.28 0-.666.191-1.233.575-1.7.383-.466.902-.7 1.558-.7.239 0 .78.059 1.625.176.394.06.83.091 1.308.091.478 0 .914-.03 1.309-.091.855-.117 1.397-.175 1.625-.175.655 0 1.175.233 1.558.7zm1.933 2.991c.34-.689.508-1.608.508-2.758v-.001c0-1.322-.377-2.428-1.133-3.317.15-.45.225-.916.225-1.4 0-.644-.141-1.25-.425-1.816-.594 0-1.12.108-1.575.325-.455.216-.975.553-1.558 1.008a9.885 9.885 0 0 0-2.333-.266c-.9 0-1.759.097-2.575.291-.595-.466-1.12-.81-1.575-1.029-.456-.22-.984-.329-1.584-.329a4.007 4.007 0 0 0-.425 1.817c0 .489.075.961.225 1.417C8.377 14.083 8 15.183 8 16.5c0 1.155.172 2.075.516 2.758.183.361.422.68.717.958.295.278.63.503 1.008.675a8.82 8.82 0 0 0 1.142.43 7.36 7.36 0 0 0 1.27.25 19.023 19.023 0 0 0 2.413.129c.511 0 .975-.012 1.392-.037a12.53 12.53 0 0 0 1.43-.184 7.115 7.115 0 0 0 1.416-.395c.409-.167.8-.406 1.175-.717a3.36 3.36 0 0 0 .88-1.109zm-8.129-1.975c.07.234.105.461.105.684 0 .222-.035.45-.105.683a1.63 1.63 0 0 1-.358.633.786.786 0 0 1-1.209 0 1.63 1.63 0 0 1-.358-.633 2.39 2.39 0 0 1-.104-.683c0-.223.035-.45.104-.684.07-.233.189-.444.358-.633a.786.786 0 0 1 1.209 0c.17.189.29.4.358.633zm5.334 0c.069.234.104.461.104.684 0 .222-.035.45-.105.683a1.64 1.64 0 0 1-.358.633.787.787 0 0 1-1.209 0 1.64 1.64 0 0 1-.358-.633 2.39 2.39 0 0 1-.104-.683c0-.223.035-.45.104-.684.07-.233.189-.444.358-.633a.786.786 0 0 1 1.21 0c.169.189.288.4.358.633z" fill="#929191"/></svg>
